assets/icons/linkedin_icon.svg

<svg width="500" height="500" xmlns="http://www.w3.org/2000/svg">

 <g>
  <title>background</title>
  <rect fill="none" id="canvas_background" height="102" width="102" y="-1" x="-1"/>
 </g>
 <g>
  <title>Layer 1</title>
  <g id="layer1">
   <g id="layer1-9">
    <path fill="#988a4d" fill-rule="nonzero" id="rect2995-4" d="m50,0c-27.7,0 -50,22.3 -50,50l0,400c0,27.7 22.3,50 50,50l400,0c27.7,0 50,-22.3 50,-50l0,-400c0,-27.7 -22.3,-50 -50,-50l-400,0zm89.90625,105.78125c19.18215,0 34.71875,15.5366 34.71875,34.71875c0,19.18215 -15.5366,34.75 -34.71875,34.75c-19.18215,0 -34.71875,-15.56785 -34.71875,-34.75c0,-19.18215 15.5366,-34.71875 34.71875,-34.71875zm181.875,90.4375c3.92206,0.01397 7.92427,0.19898 13.3125,0.53125c26.18379,1.61467 55.36063,22.07992 56.21875,70.03125c0.70675,39.49279 0.5,102.08095 0.5,125.125l-59.53125,0c0,-23.57471 0.25,-72.27422 0.25,-106.71875c0,-15.67241 -7.03504,-36.75 -32.09375,-36.75c-27.59728,0 -34.3125,25.64431 -34.3125,36.75c0,33.0736 -0.28125,85.75132 -0.28125,106.71875l-59.1875,0c0,-35.34456 0.375,-156.6535 0.375,-190.90625c30.56726,0 45.19087,-0.0625 56.375,-0.0625c0,11.21723 -0.09375,18.72191 -0.09375,26.90625c9.33696,-18.8513 34.83128,-30.65459 45.75,-31.21875c4.97858,-0.25724 8.79668,-0.42025 12.71875,-0.40625zm-211.59375,5.53125l59.34375,0l0,190.0625l-59.34375,0l0,-190.0625z"/>
   </g>
  </g>
 </g>
</svg>

<?xml version="1.0" ?><svg height="500" id="svg2" version="1.1" width="500" xmlns="http://www.w3.org/2000/svg" xmlns:cc="http://creativecommons.org/ns#" xmlns:dc="http://purl.org/dc/elements/1.1/" xmlns:inkscape="http://www.inkscape.org/namespaces/inkscape" xmlns:rdf="http://www.w3.org/1999/02/22-rdf-syntax-ns#" xmlns:sodipodi="http://sodipodi.sourceforge.net/DTD/sodipodi-0.dtd" xmlns:svg="http://www.w3.org/2000/svg"><defs id="defs4"/><g id="layer1" transform="translate(0,-552.36218)"><g id="layer1-9" transform="translate(-1068,-236)"><path d="M 50 0 C 22.3 0 -1.0018638e-016 22.3 0 50 L 0 450 C 0 477.7 22.3 500 50 500 L 450 500 C 477.7 500 500 477.7 500 450 L 500 50 C 500 22.3 477.7 -1.0018638e-016 450 0 L 50 0 z M 139.90625 105.78125 C 159.0884 105.78125 174.625 121.31785 174.625 140.5 C 174.625 159.68215 159.0884 175.25 139.90625 175.25 C 120.7241 175.25 105.1875 159.68215 105.1875 140.5 C 105.1875 121.31785 120.7241 105.78125 139.90625 105.78125 z M 321.78125 196.21875 C 325.70331 196.23272 329.70552 196.41773 335.09375 196.75 C 361.27754 198.36467 390.45438 218.82992 391.3125 266.78125 C 392.01925 306.27404 391.8125 368.8622 391.8125 391.90625 L 332.28125 391.90625 C 332.28125 368.33154 332.53125 319.63203 332.53125 285.1875 C 332.53125 269.51509 325.49621 248.4375 300.4375 248.4375 C 272.84022 248.4375 266.125 274.08181 266.125 285.1875 C 266.125 318.2611 265.84375 370.93882 265.84375 391.90625 L 206.65625 391.90625 C 206.65625 356.56169 207.03125 235.25275 207.03125 201 C 237.59851 201 252.22212 200.9375 263.40625 200.9375 C 263.40625 212.15473 263.3125 219.65941 263.3125 227.84375 C 272.64946 208.99245 298.14378 197.18916 309.0625 196.625 C 314.04108 196.36776 317.85918 196.20475 321.78125 196.21875 z M 110.1875 201.75 L 169.53125 201.75 L 169.53125 391.8125 L 110.1875 391.8125 L 110.1875 201.75 z " id="rect2995-4" style="fill:#000000;fill-opacity:1;fill-rule:nonzero" transform="translate(1068,788.36218)"/></g></g></svg>
